public/svgs/light/arrow-right-to-bracket.svg

<svg xmlns="http://www.w3.org/2000/svg" viewBox="0 0 512 512"><!-- Font Awesome Pro 6.0.0-alpha2 by @fontawesome - https://fontawesome.com License - https://fontawesome.com/license (Commercial License) --><path d="M352 256C352 251.906 350.438 247.812 347.312 244.688L203.312 100.688C197.062 94.438 186.937 94.438 180.688 100.688S174.438 117.063 180.688 123.312L297.375 240H16C7.156 240 0 247.156 0 256S7.156 272 16 272H297.375L180.688 388.688C174.438 394.938 174.438 405.063 180.688 411.312S197.063 417.562 203.312 411.312L347.312 267.312C350.438 264.188 352 260.094 352 256ZM432 32H336C327.156 32 320 39.156 320 48S327.156 64 336 64H432C458.469 64 480 85.531 480 112V400C480 426.469 458.469 448 432 448H336C327.156 448 320 455.156 320 464S327.156 480 336 480H432C476.125 480 512 444.125 512 400V112C512 67.875 476.125 32 432 32Z"/></svg>

<svg xmlns="http://www.w3.org/2000/svg" viewBox="0 0 512 512"><!--! Font Awesome Pro 6.5.1 by @fontawesome - https://fontawesome.com License - https://fontawesome.com/license (Commercial License) Copyright 2023 Fonticons, Inc. --><path d="M347.3 267.3c6.2-6.2 6.2-16.4 0-22.6l-128-128c-6.2-6.2-16.4-6.2-22.6 0s-6.2 16.4 0 22.6L297.4 240 16 240c-8.8 0-16 7.2-16 16s7.2 16 16 16l281.4 0L196.7 372.7c-6.2 6.2-6.2 16.4 0 22.6s16.4 6.2 22.6 0l128-128zM336 448c-8.8 0-16 7.2-16 16s7.2 16 16 16l96 0c44.2 0 80-35.8 80-80l0-288c0-44.2-35.8-80-80-80l-96 0c-8.8 0-16 7.2-16 16s7.2 16 16 16l96 0c26.5 0 48 21.5 48 48l0 288c0 26.5-21.5 48-48 48l-96 0z"/></svg>
